X:1
T:Bruno
C:Sarah Allen
D:Flook:Flatfish
M:4/4
L:1/8
R:air
K:G
DGA |: BA GA GF GF | EF D4 GA | BA Gc BA de | B4- B D GA |
BA GA GF GF | EF D4- D D | EC AG FD BA |1 G4- G D GA :|2 G7 d ||
e2 gf e4 | d2 ed BD GB| cA dc AD GA | B6 d2 |
eG gf eG ce | dG ed BD GB | cA dc AD BA | G4 z  ||
